X:510
T:Wonderful World
C:
N:Transcribed by Peter Ineson
R:bluegrass
L:1/8
Q:1/4=68
M:4/4
K:F
z8 | (3FAc (3fcA (3FBd (3gdB | (3FAc (3fcA (3FBd (3gee | (3fAc f/(3ca (3c'ce (3aec | 
(3FBd'(3d'd' (3c'Ac (3ecA | (3FBbb/b (3aAa (3cac | (3g_dg (3ggA (3fFA (3=dAf | 
ff/(3f (3f_d_A (3fdA (3fdA | (3CGB ff (3eGB (3fcg | (3aAc (3acA (3FA_d (3fdA | 
(3FBd (3fdB (3CEG c/(3Ge | (3fAc f/(3ca (3c'ce (3aec | (3FBd'(3d'd' (3c'Ac (3ecA | 
(3bBdf(3bb (3aAc (3fca | (3[gA]_de a(3g/a/g/ (3fFA =de | ff f/f/f (3f_d_A (3fdA | 
(3CGB (3dBf (3eG[fB] c/(3[gB]G | (3fAc (3fcA (3FBd (3fdB | (3FAc (3fcA (3FAc (3fcf | 
(3gBc (3gcg (3gBc (3gcg | (3bcf (3afc (3acf (3afc | (3gBg (3gcg (3gBc (3ecg | 
(3bca (3afc (3acf (3afc' | (3d'dd (3dd'd' (3c'ee ac' | (3d'dd (3dd'd' (3c'aa (3aea | 
(3ecA(3d'd' (3c'Ac (3_ecc' | (3bBd (3adB (3gEG (3gGe | (3fAc (3fca (3c'ce (3c'ec | 
(3gc'd'(3d'd' (3c'Ac (3ecA | (3c'bd (3gbb (3aAc (3fca | (3gA_d (3ggg (3fFA (3=dAf | 
(3f_d_A (3fdA (3fAd (3fdA | (3CGB f3/4f/f3/4 (3eGB (3fcg | (3aAg (3acA (3Ac_e (3gec | 
(3d_ga (3c'ag (3dga (3c'ag | (3aBf (3gdB (3fBd (3gdB | (3feg (3c'ge (3ceg (3c'ge | 
(3fcf (3afc (3FBd (3gdB | (3fcf (3c'ac [F4A,4] | z8 | z8 | z8 | 


